X:1
T:La danse macabre
T:Camille Saint-Saëns
L:1/8
M:3/4
K:Bb
V:1 treble nm="Violin" snm="Vln."
V:1
 [Ae]6 | [DA]6 | [Ae]4 [Ae]2 | [DA]4 [DA]2 | [Ae][Ae] [Ae]2 [DA]2 | [Ae][Ae] [Ae]2 [DA]2 | %6
 [Ae]2 [DA]2 [Ae]2 | [DA]2 [Ae]2 [DA]2 | [Bg]2 GB GA | B2 GB GB | A/B/(3:2:2A/G GB GA | B2 AB GB | %12
 _A2 _Ac _Ac | c2 Bc _Ac | B/c/(3:2:2B/_A _Ac _AB | c2 _Ac B_A | G2 gb ga | b2 ab gb | %18
 a/b/(3:2:2a/g gb ga | b2 ab gb | _a2 _ac' _ab | c'2 bc' _ac' | b/c'/(3:2:2b/_a _ac' _ab | %23
 c'2 _ac' b_a | g2 z2 D2 | G4 G2 | F4 F2 | =E4 =E2 | _E4 _E2 | D2 =E2 G2 | ^F2 =E2 D2 | =E4 =E2 | %32
 ^F4 D2 | G4 G2 | F4 F2 | =E4 =E2 | _E4 _E2 | D2 G2 B2 | A2 ^F2 D2 | ^F4 =E2 |: D2 c^f d=e | %41
 ^f2 =e^f d=e | =ed d^f d=e | ^f2 =e^f d^f | [eg]2 GB GA | B2 EG EF | G2 B,E B,D | E2 EE EE :| %48
 D2 [DA][DA] [DA][DA] | [Ae]2 [DA][DA] [DA][DA] | [Ae]2 [DA]2 [Ae]2 | [DA]2 [Ae]2 [DA]2 | %52
 G2 GB GA | B2 AB GB | AG GB GA | B2 AB GB | _A2 _Ac _AB | B2 AB GB | B_A _Ac _AB | c2 _Ac B_A | %60
 G2 gb ga | b2 ab gb | a/b/(3:2:2a/g gb ga | b2 ab gb | a2 ac' ab | c'2 bc' _ac' | %66
 b/c'/(3:2:2b/_a _ac' _ab | c'2 _ac' b_a | g2 z2 D2 | G4 G2 | F4 F2 | =E4 =E2 | _E4 _E2 | %73
 D2 =E2 G2 | ^F2 =E2 D2 | =E4 =E2 | ^F4 D2 | G4 G2 | F4 F2 | =E4 =E2 | _E4 _E2 | D2 G2 B2 | %82
 A2 ^F2 D2 | ^F4 =E2 | D2 d^f d=e | ^f2 =e=f df | =e/^f/(3:2:2=e/d d^f d=e | ^f2 =e^f d^f | %88
 g2 GB GA | B2 EG EF | G2 B,E B,D | E2 EE EE | D2 d^f d=e | ^f2 =e^f d^f | %94
 =e/^f/(3:2:2=e/d d^f d=e | ^f2 =e^f d^f | g2 GB GA | B2 EG EF | G2 B,E B,D | D2 DD DD | %100
 D2 [DA][DA] [DA][DA] | [Ae]2 [DA][DA] [DA][DA] | [Ae]2 [DA]2 [Ge]2 | [DA]2 [Ae]2 [DA]2 | %104
 [Bg]2 z4 |] %105

